16x16/apps/gnome-screenruler.svg

<svg height="16" width="16" xmlns="http://www.w3.org/2000/svg"><rect fill="#e2d144" height="16" rx=".813" ry=".8" transform="matrix(0 -1 -1 0 0 0)" width="13" x="-14" y="-16"/><path d="m4 1h1v6h-1zm2 0h1v3h-1zm6 0h1v5h-1zm-9 7v5h3v-5zm1 1h1v3h-1zm4-8h1v3h-1zm2 0h1v3h-1zm4 0h1v3h-1z" opacity=".5"/></svg>

<svg xmlns="http://www.w3.org/2000/svg" width="16" height="16" version="1"><rect style="fill:#e2d144" width="13" height="16" x="-14" y="-16" rx=".813" ry=".8" transform="matrix(0 -1 -1 0 0 0)"/><path style="opacity:.5" d="M4 1h1v6H4zM6 1h1v3H6zM12 1h1v5h-1zM3 8v5h3V8H3zm1 1h1v3H4V9zM8 1h1v3H8zM10 1h1v3h-1zM14 1h1v3h-1z"/></svg>
